X:7
T: Du brauchs jo net ze kreischen, S. 30
N: S0070
O: Luxemburg
S: Die Bauernhochzeit in frheren Zeiten]
R: Brautlied, Hochzeitslied]
M: 2/4
L: 1/8
K: F
c | cccc | f2cc | f4 | czc2 | c4 | A2z
c | cccc | f2cc | f4 | czc2 | G4 | F2z

@@@ Tune index: 8061
